static/assets/images/protocols/quickswap-mono.svg

<svg width="353" height="381" viewBox="0 0 353 381" fill="none" xmlns="http://www.w3.org/2000/svg">
<path d="M236.175 257.693C231.51 262.892 225.5 267.5 219.628 270.974C219.043 271.344 218.4 271.751 217.861 271.21C217.461 270.691 217.861 269.131 217.861 269.131C217.861 269.131 220.198 259.722 220.723 254.932C216.502 258.386 212.279 261.761 206.631 264.279C208.359 260.639 209.741 257 210.605 253.014C214.233 236.897 210.778 222.341 201.448 209.17C199.029 205.877 195.92 203.451 193.155 200.505C200.93 208.823 205.422 218.528 205.595 229.966C205.767 237.764 203.694 245.216 199.72 252.148C192.637 264.452 182.444 273.637 170.177 280.395C157.738 287.327 143.916 291.66 129.749 293.219C104.352 295.992 80.6829 290.446 59.0868 276.929C41.1189 265.665 27.1247 250.241 15.8947 232.392C10.7116 223.9 1.38215 206.744 0.172768 200.852C0.172768 201.912 0.11931 202.758 0.0718663 203.509C0.0340193 204.108 0 204.646 0 205.184C0.345537 221.474 2.93707 237.417 7.60182 252.841C17.2769 284.554 41.9831 320.186 68.2905 340.367C68.6692 340.629 69.0497 340.889 69.4315 341.146C79.4086 347.512 90.0689 352.504 101.242 355.953C107.117 357.859 112.303 358.89 119.556 359.765C120.836 359.92 122.13 360.047 122.838 360.112C124.155 360.232 125.472 360.325 126.788 360.392C140.612 360.573 154.378 358.137 167.413 353.353C181.061 348.328 193.846 341.223 205.249 332.038C216.306 323.026 225.981 312.628 232.374 299.631C235.829 292.699 237.902 285.074 238.593 277.449C239.275 270.609 238.107 264.105 236.249 257.607L236.175 257.693Z" fill="black"/>
<path fill-rule="evenodd" clip-rule="evenodd" d="M191.255 169.485C191.946 169.658 192.637 170.005 192.982 169.485C193.246 169.089 192.291 167.752 192.291 167.752C192.291 167.752 185.035 157.701 180.543 153.715C175.015 149.556 169.313 145.57 162.748 142.624V141.931H169.659C201.794 141.411 231.683 149.209 257.598 168.965C284.55 189.414 301.308 216.275 307.528 249.548C312.884 277.969 308.737 304.83 293.015 329.265C290.048 334.061 286.923 338.54 282.741 342.253C282.592 342.43 282.45 342.614 282.32 342.81C282.309 342.914 282.304 343.02 282.304 343.129L282.222 342.964C282.124 343.125 282.036 343.294 281.958 343.475C281.388 344.334 280.741 345.134 280.041 345.892C277.776 348.35 274.964 350.368 272.456 352.487C262.809 360.32 252.283 366.193 241.111 370.523C256.595 364.8 271.073 357.021 284.204 347.507C316.987 323.758 351.389 295.619 352.102 248.855C352.122 247.569 352.102 245.562 352.102 245.562C351.238 227.886 346.919 210.73 339.317 194.786C334.307 184.388 328.087 174.684 320.658 166.019C313.92 158.047 306.319 151.289 298.198 144.877C294.052 142.277 290.078 139.331 285.759 136.905C272.11 128.933 257.08 123.561 241.358 120.962C241.012 120.788 240.667 120.788 240.321 120.615C244.986 119.748 261.053 122.175 272.11 125.294C282.477 128.067 292.324 132.053 301.999 137.078C300.963 134.132 298.439 130.053 298.439 130.053C298.439 130.053 296.974 127.488 296.298 126.334C299.171 127.488 301.018 128.759 303.896 130.298C317.306 137.196 330.211 145.834 341.911 155.309C342.381 155.697 342.41 155.979 341.909 156.314C344.212 157.529 345.883 158.74 345.883 158.74L344.255 156.686C337.046 147.297 328.328 139.421 319.103 132.053C308.046 123.041 296.125 115.416 283.34 109.351C265.545 100.512 246.713 94.7937 227.018 92.3675C225.29 92.1942 223.39 92.3675 221.835 91.6743C221.822 91.5871 221.816 91.5043 221.816 91.4256C219.131 92.8184 216.764 95.0072 214.233 96.6999C204.731 102.939 194.537 108.311 183.826 112.47C183.653 112.47 183.307 112.643 182.962 112.643C182.444 111.95 182.962 111.777 183.307 111.43C189.354 105.711 193.155 98.6062 195.574 90.6345C195.747 89.5947 196.611 88.7283 197.474 88.3817C216.306 80.9299 231.164 68.6258 243.431 52.6824C244.467 51.296 245.677 49.7364 247.059 48.0034C243.258 48.0034 237.384 50.6028 237.384 50.6028L234.723 51.6548C234.723 51.2885 235.223 50.5295 235.223 50.5295C258.824 22.0413 262.954 0 262.954 0C241.365 41.0308 216.479 58.7478 199.375 70.1854C196.783 56.4949 195.919 58.4012 191.428 48.6966C191.428 49.7363 180.37 65.1598 166.549 73.8247C152.555 82.6628 116.1 88.3817 116.619 109.004C116.619 118.362 121.802 122.175 130.959 124.601C119.383 128.24 116.273 120.442 115.064 122.001C110.226 127.374 91.9129 144.183 81.7195 139.851C74.4632 138.465 77.4003 128.067 78.4369 123.388V123.214C74.9816 124.191 72.4505 126.292 69.9409 128.221C48.2162 144.924 44.747 168.272 50.4484 194.613C50.9667 197.039 51.6578 196.519 53.0399 195.479C55.4587 193.573 57.7047 191.32 60.2962 189.761C60.3631 189.777 60.4284 189.797 60.4921 189.82C61.4791 188.414 62.7465 187.171 64.1619 186.356C64.1409 186.337 64.1193 186.317 64.0971 186.295C75.1543 178.496 87.0753 171.911 100.206 168.098C118.174 162.726 136.487 161.513 154.973 162.9C164.476 163.593 175.846 166.036 185.175 168.116C187.179 168.572 189.283 169.029 191.255 169.485ZM177.965 85.3587C173.204 105.141 161.366 114.55 144.78 116.109L144.534 116.135C141.342 116.473 138.305 116.794 135.105 116.456C133.896 112.99 135.278 110.044 137.178 107.444C139.597 104.325 142.88 102.419 146.335 100.859C151.617 98.4664 157.067 96.4108 162.519 94.5261C162.557 94.5129 162.639 94.4997 162.72 94.4865L162.921 94.4471C163.18 94.3172 163.442 94.1857 163.708 94.0526C168.413 91.698 174.152 88.826 177.965 85.3587ZM72.9083 155.101C75.8454 154.581 77.2276 155.621 77.9186 158.394C77.8114 157.856 78.0145 157.42 78.2393 156.938C78.3767 156.643 78.5221 156.331 78.6097 155.968C78.731 155.465 78.8583 154.982 78.9815 154.514C79.5401 152.394 80.0153 150.591 79.4735 148.689C78.9552 146.783 77.0548 145.57 74.9816 145.916C73.7722 146.09 72.39 146.61 71.3534 147.303C67.0342 150.249 64.6296 154.072 63.0146 159.669C62.966 159.837 62.9207 159.99 62.8782 160.134C62.6409 160.937 62.4931 161.436 62.3694 162.553C62.3694 162.553 63.955 160.655 65.1337 159.607C67.7557 157.275 69.9713 155.794 72.9083 155.101Z" fill="black"/>
<path d="M225 81.5C223.383 84.7334 221.816 91.4256 221.816 91.4256C221.816 91.4256 239.213 77.585 247.059 66C261.926 44.0491 262.954 0 262.954 0C262.954 0 258.521 34.063 248 52.6824C240.916 65.2184 228.5 74.5 225 81.5Z" fill="black"/>
<path fill-rule="evenodd" clip-rule="evenodd" d="M163.708 94.0526C163.442 94.1857 163.18 94.3172 162.921 94.4471C160.848 102.245 156.01 107.618 149.099 111.43C145.268 113.582 141.03 114.78 136.745 115.99L136.741 115.991C136.196 116.145 135.651 116.299 135.105 116.456C138.305 116.794 141.342 116.473 144.534 116.135L144.78 116.109C161.366 114.55 173.204 105.141 177.965 85.3587C174.152 88.826 168.413 91.698 163.708 94.0526ZM162.519 94.5261L162.72 94.4865C162.639 94.4997 162.557 94.5129 162.519 94.5261Z" fill="black"/>
<path d="M105.216 211.596C104.007 210.21 101.85 208.129 100.724 205.531C98.9964 201.545 98.6508 197.039 101.588 193.92C105.164 190.162 110.753 188.761 115.544 187.561L115.755 187.508C125.948 184.908 136.314 184.388 146.68 185.082C155.146 185.601 163.266 187.854 171.559 190.281C177.927 192.082 183.762 193.867 190.736 197.906C203.265 205.161 211.123 212.463 216.825 224.247C219.589 229.966 221.316 236.378 221.835 242.79C222.18 246.429 222.18 250.241 221.662 253.881C220.952 259.44 219.538 265.482 217.861 270.864C221.489 268.784 225.117 266.358 228.573 263.759C231.164 261.679 235.506 258.364 238.766 253.881C242.45 248.814 244.467 244.869 245.504 239.324C245.677 238.63 245.85 237.937 246.195 237.244C248.268 241.403 249.996 245.736 251.033 250.241C252.588 256.653 253.624 263.065 253.106 269.651C252.242 280.915 248.787 292.006 243.258 301.884C237.557 311.935 230.3 320.427 222.008 328.052C214.579 334.637 206.458 340.356 197.82 345.035C187.281 350.754 176.051 355.086 164.476 357.859C157.219 359.592 149.79 360.632 142.361 361.152C138.733 361.325 135.105 361.672 131.65 361.498C129.058 361.325 122.839 361.062 117.284 360.112C112.163 359.237 106.611 358.107 100 356C87.3542 351.97 80.1125 348.345 69.4315 341.146C74.4418 345.825 74.6386 346.661 78.2642 349.887C102.68 371.612 128.367 376.055 156.528 379.521C174.496 381.774 192.464 381.427 210.259 378.655C214.688 377.948 219.058 377.084 223.358 376.044C229.405 374.506 235.328 372.66 241.111 370.523C252.283 366.193 262.809 360.32 272.456 352.487C274.964 350.368 277.776 348.35 280.041 345.892C280.741 345.134 281.388 344.334 281.958 343.475C282.036 343.294 282.124 343.125 282.222 342.964L282.131 342.782C282.204 342.72 282.277 342.658 282.349 342.596C282.595 341.17 283.797 340.208 284.723 338.97C293.188 327.012 298.198 313.668 300.963 299.111C302.69 290.1 302.69 281.088 302.172 272.25C301.308 258.56 297.68 245.216 292.152 232.565C288.178 223.207 282.995 214.369 276.948 206.224C271.333 198.765 264.785 191.707 257.655 185.521C256.97 184.928 256.277 184.34 255.577 183.756C255.273 183.503 254.967 183.252 254.661 183.002C254.498 182.868 254.335 182.734 254.172 182.6C253.478 182.036 252.777 181.477 252.069 180.922C233.065 166.019 211.296 157.527 187.454 154.408C186.638 154.35 185.823 154.173 185.007 154.018C184.177 153.917 183 153.755 183 153.755L180.543 153.715C185.035 157.701 192.291 167.752 192.291 167.752C192.291 167.752 193.246 169.089 192.982 169.485C192.637 170.005 191.946 169.658 191.255 169.485C189.283 169.029 187.179 168.572 185.175 168.116C188.771 172.139 191.891 176.632 194.537 181.442C194.71 181.962 195.401 182.482 194.883 183.002C194.365 183.349 193.846 182.829 193.328 182.655C180.889 177.976 167.931 174.51 154.801 172.084C148.235 170.871 141.497 170.351 134.759 170.005C128.713 169.658 122.666 169.658 116.619 170.178C102.797 171.218 89.4941 174.164 76.7092 179.883C72.7356 181.616 68.7619 183.695 65.1337 186.121C64.803 186.287 64.6306 186.771 64.1619 186.356C62.7465 187.171 61.4791 188.414 60.4921 189.82C60.4255 189.915 60.3602 190.011 60.2962 190.107C62.715 194.093 65.1338 196.173 68.7619 199.119C76.3637 205.184 85.0021 208.303 94.3316 210.21C97.787 210.903 101.242 211.596 105.216 211.596Z" fill="black"/>
</svg>

<svg xmlns="http://www.w3.org/2000/svg" fill="none" viewBox="0 0 353 381"><path fill="#000" d="M236.175 257.693c-4.665 5.199-10.675 9.807-16.547 13.281-.585.37-1.228.777-1.767.236-.4-.519 0-2.079 0-2.079s2.337-9.409 2.862-14.199c-4.221 3.454-8.444 6.829-14.092 9.347 1.728-3.64 3.11-7.279 3.974-11.265 3.628-16.117.173-30.673-9.157-43.844-2.419-3.293-5.528-5.719-8.293-8.665 7.775 8.318 12.267 18.023 12.44 29.461.172 7.798-1.901 15.25-5.875 22.182-7.083 12.304-17.276 21.489-29.543 28.247-12.439 6.932-26.261 11.265-40.428 12.824-25.397 2.773-49.066-2.773-70.662-16.29-17.968-11.264-31.962-26.688-43.192-44.537-5.183-8.492-14.513-25.648-15.722-31.54 0 1.06-.054 1.906-.101 2.657-.038.599-.072 1.137-.072 1.675.346 16.29 2.937 32.233 7.602 47.657 9.675 31.713 34.381 67.345 60.688 87.526q.57.393 1.141.779c9.978 6.366 20.638 11.358 31.811 14.807 5.875 1.906 11.061 2.937 18.314 3.812 1.28.155 2.574.282 3.282.347q1.976.18 3.95.28c13.824.181 27.59-2.255 40.625-7.039 13.648-5.025 26.433-12.13 37.836-21.315 11.057-9.012 20.732-19.41 27.125-32.407 3.455-6.932 5.528-14.557 6.219-22.182.682-6.84-.486-13.344-2.344-19.842z"/><path fill="#000" fill-rule="evenodd" d="M191.255 169.485c.691.173 1.382.52 1.727 0 .264-.396-.691-1.733-.691-1.733s-7.256-10.051-11.748-14.037c-5.528-4.159-11.23-8.145-17.795-11.091v-.693h6.911c32.135-.52 62.024 7.278 87.939 27.034 26.952 20.449 43.71 47.31 49.93 80.583 5.356 28.421 1.209 55.282-14.513 79.717-2.967 4.796-6.092 9.275-10.274 12.988a6 6 0 0 0-.421.557q-.016.156-.016.319l-.082-.165q-.147.24-.264.511a19 19 0 0 1-1.917 2.417c-2.265 2.458-5.077 4.476-7.585 6.595-9.647 7.833-20.173 13.706-31.345 18.036a179.5 179.5 0 0 0 43.093-23.016c32.783-23.749 67.185-51.888 67.898-98.652.02-1.286 0-3.293 0-3.293-.864-17.676-5.183-34.832-12.785-50.776-5.01-10.398-11.23-20.102-18.659-28.767-6.738-7.972-14.339-14.73-22.46-21.142-4.146-2.6-8.12-5.546-12.439-7.972-13.649-7.972-28.679-13.344-44.401-15.943-.346-.174-.691-.174-1.037-.347 4.665-.867 20.732 1.56 31.789 4.679 10.367 2.773 20.214 6.759 29.889 11.784-1.036-2.946-3.56-7.025-3.56-7.025s-1.465-2.565-2.141-3.719c2.873 1.154 4.72 2.425 7.598 3.964 13.41 6.898 26.315 15.536 38.015 25.011.47.388.499.67-.002 1.005a37 37 0 0 1 3.974 2.426l-1.628-2.054c-7.209-9.389-15.927-17.265-25.152-24.633-11.057-9.012-22.978-16.637-35.763-22.702-17.795-8.839-36.627-14.557-56.322-16.983-1.728-.174-3.628 0-5.183-.694a2 2 0 0 1-.019-.248c-2.685 1.392-5.052 3.581-7.583 5.274-9.502 6.239-19.696 11.611-30.407 15.77-.173 0-.519.173-.864.173-.518-.693 0-.866.345-1.213 6.047-5.719 9.848-12.824 12.267-20.796.173-1.04 1.037-1.906 1.9-2.252 18.832-7.452 33.69-19.756 45.957-35.7a191 191 0 0 1 3.628-4.679c-3.801 0-9.675 2.6-9.675 2.6l-2.661 1.052c0-.367.5-1.126.5-1.126C258.824 22.042 262.954 0 262.954 0c-21.589 41.03-46.475 58.748-63.579 70.185-2.592-13.69-3.456-11.784-7.947-21.488 0 1.04-11.058 16.463-24.879 25.128-13.994 8.838-50.449 14.557-49.93 35.179 0 9.358 5.183 13.171 14.34 15.597-11.576 3.639-14.686-4.159-15.895-2.6-4.838 5.373-23.151 22.182-33.344 17.85-7.257-1.386-4.32-11.784-3.283-16.463v-.174c-3.455.977-5.986 3.078-8.496 5.007-21.725 16.703-25.194 40.051-19.493 66.392.519 2.426 1.21 1.906 2.592.866 2.419-1.906 4.665-4.159 7.256-5.718q.1.024.196.059c.987-1.406 2.255-2.649 3.67-3.464l-.065-.061c11.057-7.799 22.978-14.384 36.109-18.197 17.968-5.372 36.281-6.585 54.767-5.198 9.503.693 20.873 3.136 30.202 5.216 2.004.456 4.108.913 6.08 1.369m-13.29-84.126c-4.761 19.782-16.599 29.191-33.185 30.75l-.246.026c-3.192.338-6.229.659-9.429.321-1.209-3.466.173-6.412 2.073-9.012 2.419-3.119 5.702-5.025 9.157-6.585 5.282-2.393 10.732-4.448 16.184-6.333.038-.013.12-.026.201-.04l.201-.039.787-.394c4.705-2.355 10.444-5.227 14.257-8.694M72.908 155.1c2.937-.52 4.32.52 5.01 3.293-.107-.538.096-.974.321-1.456.138-.295.283-.607.37-.97.122-.503.25-.986.373-1.454.558-2.12 1.033-3.923.492-5.825-.519-1.906-2.42-3.119-4.492-2.773-1.21.174-2.592.694-3.629 1.387-4.319 2.946-6.723 6.769-8.338 12.366l-.137.465c-.237.803-.385 1.302-.509 2.419 0 0 1.586-1.898 2.765-2.946 2.622-2.332 4.837-3.813 7.774-4.506" clip-rule="evenodd"/><path fill="#000" d="M225 81.5c-1.617 3.233-3.184 9.926-3.184 9.926S239.213 77.585 247.059 66c14.867-21.95 15.895-66 15.895-66S258.521 34.063 248 52.682C240.916 65.218 228.5 74.5 225 81.5"/><path fill="#000" fill-rule="evenodd" d="m163.708 94.053-.787.394c-2.073 7.798-6.911 13.171-13.822 16.983-3.831 2.152-8.069 3.35-12.354 4.56l-.004.001q-.817.23-1.636.465c3.2.338 6.237.017 9.429-.321l.246-.026c16.586-1.559 28.424-10.968 33.185-30.75-3.813 3.467-9.552 6.339-14.257 8.694m-1.189.473.201-.04c-.081.014-.163.027-.201.04" clip-rule="evenodd"/><path fill="#000" d="M105.216 211.596c-1.209-1.386-3.366-3.467-4.492-6.065-1.728-3.986-2.073-8.492.864-11.611 3.576-3.758 9.165-5.159 13.956-6.359l.211-.053c10.193-2.6 20.559-3.12 30.925-2.426 8.466.519 16.586 2.772 24.879 5.199 6.368 1.801 12.203 3.586 19.177 7.625 12.529 7.255 20.387 14.557 26.089 26.341 2.764 5.719 4.491 12.131 5.01 18.543.345 3.639.345 7.451-.173 11.091-.71 5.559-2.124 11.601-3.801 16.983 3.628-2.08 7.256-4.506 10.712-7.105 2.591-2.08 6.933-5.395 10.193-9.878 3.684-5.067 5.701-9.012 6.738-14.557.173-.694.346-1.387.691-2.08 2.073 4.159 3.801 8.492 4.838 12.997 1.555 6.412 2.591 12.824 2.073 19.41-.864 11.264-4.319 22.355-9.848 32.233-5.701 10.051-12.958 18.543-21.25 26.168-7.429 6.585-15.55 12.304-24.188 16.983-10.539 5.719-21.769 10.051-33.344 12.824-7.257 1.733-14.686 2.773-22.115 3.293-3.628.173-7.256.52-10.711.346-2.592-.173-8.811-.436-14.366-1.386-5.121-.875-10.673-2.005-17.284-4.112-12.646-4.03-19.888-7.655-30.568-14.854 5.01 4.679 5.207 5.515 8.832 8.741 24.416 21.725 50.103 26.168 78.264 29.634 17.968 2.253 35.936 1.906 53.731-.866a169 169 0 0 0 13.099-2.611 177 177 0 0 0 17.753-5.521c11.172-4.33 21.698-10.203 31.345-18.036 2.508-2.119 5.32-4.137 7.585-6.595.7-.758 1.347-1.558 1.917-2.417q.117-.27.264-.511l-.091-.182.218-.186c.246-1.426 1.448-2.388 2.374-3.626 8.465-11.958 13.475-25.302 16.24-39.859 1.727-9.011 1.727-18.023 1.209-26.861-.864-13.69-4.492-27.034-10.02-39.685-3.974-9.358-9.157-18.196-15.204-26.341-5.615-7.459-12.163-14.517-19.293-20.703a130.793 130.793 0 0 0-2.994-2.519l-.489-.402a153 153 0 0 0-2.103-1.678c-19.004-14.903-40.773-23.395-64.615-26.514-.816-.058-1.631-.235-2.447-.39-.83-.101-2.007-.263-2.007-.263l-2.457-.04c4.492 3.986 11.748 14.037 11.748 14.037s.955 1.337.691 1.733c-.345.52-1.036.173-1.727 0-1.972-.456-4.076-.913-6.08-1.369 3.596 4.023 6.716 8.516 9.362 13.326.173.52.864 1.04.346 1.56-.518.347-1.037-.173-1.555-.347-12.439-4.679-25.397-8.145-38.527-10.571-6.566-1.213-13.304-1.733-20.042-2.079-6.046-.347-12.093-.347-18.14.173-13.822 1.04-27.125 3.986-39.91 9.705-3.973 1.733-7.947 3.812-11.575 6.238-.331.166-.503.65-.972.235-1.416.815-2.683 2.058-3.67 3.464q-.1.143-.196.287c2.419 3.986 4.838 6.066 8.466 9.012 7.602 6.065 16.24 9.184 25.57 11.091 3.455.693 6.91 1.386 10.884 1.386"/></svg>
